X: 29496
T: Nil Se Ina La
R: waltz
M: 3/4
K: Dmajor
|:DF|A3 A Bc|d4 DF|A3 F GF|FE- E2 DF|
A3 A Bc|d3 A DF|A3 F EF|ED- D2:|
K: Gmaj
|:GB|d3 d ef|g4 GB|d3 B cB|BA- A2 GB|
d3 d ef|g4 GB|d3 B AB|AG- G2:|

